svg/u264b.svg

<svg viewBox="0 0 128 128" xmlns="http://www.w3.org/2000/svg">
  <circle cx="64" cy="64" r="60" fill="#FFA000"/>
  <circle cx="60.1" cy="63.1" r="56.1" fill="#FFCA28"/>
  <path d="M24,29.7c4.5-7.1,14.1-13,24.1-14.8c2.5-0.4,5-0.6,7.1,0.2 c1.6,0.6,2.9,2.1,2,3.8c-0.7,1.4-2.6,2-4.1,2.5c-9.3,3-17.9,6.4-23.1,14.3c-2,3-4.9,14.4-8.6,12.3C17.5,45.7,18.3,38.5,24,29.7z" opacity="0.65" fill="#F9DF9D" enable-background="new "/>
  <g>
    <path d="M45.1,76.2C54.9,75,62.8,66.9,64,56.8c0.9-8.4-2.8-16.5-9.5-21c2.6-0.3,5.2-0.5,7.9-0.5 c6.2,0,12.1,0.9,17.6,2.7c4.3,1.5,8.4,3.4,12,5.8c0.6,0.4,1.3,0.6,1.9,0.6c2,0,3.6-1.6,3.6-3.6c0-1-0.4-2-1.2-2.7 c-4.3-4-9.4-7-15.2-9.1c-5.8-2.2-12.2-3.2-18.8-3.2c-6.3,0-11.8,0.9-18.9,3.1C24.9,34.8,21,45.9,21,54.2c0,12.2,9.6,22.1,21.5,22.1 C43.4,76.3,44.3,76.2,45.1,76.2L45.1,76.2z M30.8,54.2c0-6.8,5.3-12.3,11.9-12.3s11.9,5.5,11.9,12.3s-5.3,12.3-11.9,12.3 S30.8,61,30.8,54.2z" fill="#FAFAFA"/>
    <path d="M85.4,51.7c-0.8,0-1.6,0-2.4,0.1c-9.9,1.2-17.8,9.3-19,19.4c-0.9,8.4,2.8,16.5,9.4,21 c-2.6,0.3-5.2,0.5-7.9,0.5c-6.2,0-12.1-0.9-17.7-2.7c-4.3-1.4-8.4-3.4-12-5.8c-0.6-0.4-1.3-0.6-2-0.6c-2,0-3.6,1.6-3.6,3.6 c0,1,0.4,2,1.1,2.7c4.3,4,9.4,7.1,15.2,9.2c5.8,2.2,12.2,3.2,18.8,3.2c6.3,0,11.8-0.9,18.9-3.1c18.5-5.8,22.4-17,22.4-25.3 C106.8,61.6,97.2,51.7,85.4,51.7z M85.4,86.1c-6.6,0-11.9-5.5-11.9-12.3s5.3-12.3,11.9-12.3S97.2,67,97.2,73.8S91.9,86.1,85.4,86.1 z" fill="#FAFAFA"/>
  </g>
  <path d="M24,29.7c4.5-7.1,14.1-13,24.1-14.8c2.5-0.4,5-0.6,7.1,0.2 c1.6,0.6,2.9,2.1,2,3.8c-0.7,1.4-2.6,2-4.1,2.5c-9.3,3-17.9,6.4-23.1,14.3c-2,3-4.9,14.4-8.6,12.3C17.5,45.7,18.3,38.5,24,29.7z" opacity="0.35" fill="#F9DF9D" enable-background="new "/>
</svg>

<svg viewBox="0 0 128 128" xmlns="http://www.w3.org/2000/svg">
  <defs/>
  <path d="M124,64 A60 60 0 1 1 4,64 A60 60 0 1 1 124,64 Z" fill="#FFA000"/>
  <path d="M116.2,63.1 A56.1 56.1 0 1 1 4,63.1 A56.1 56.1 0 1 1 116.2,63.1 Z" fill="#FFCA28"/>
  <path d="M24,29.7 C28.5,22.6 38.1,16.7 48.1,14.9 C50.6,14.5 53.1,14.3 55.2,15.1 C56.8,15.7 58.1,17.2 57.2,18.9 C56.5,20.3 54.6,20.9 53.1,21.4 C43.8,24.4 35.2,27.8 30,35.7 C28,38.7 25.1,50.1 21.4,48 C17.5,45.7 18.3,38.5 24,29.7 Z" fill="#F9DF9D" opacity="0.65"/>
  <path d="M45.1,76.2 C54.9,75 62.8,66.9 64,56.8 C64.9,48.4 61.2,40.3 54.5,35.8 C57.1,35.5 59.7,35.3 62.4,35.3 C68.6,35.3 74.5,36.2 80,38 C84.3,39.5 88.4,41.4 92,43.8 C92.6,44.2 93.3,44.4 93.9,44.4 C95.9,44.4 97.5,42.8 97.5,40.8 C97.5,39.8 97.1,38.8 96.3,38.1 C92,34.1 86.9,31.1 81.1,29 C75.3,26.8 68.9,25.8 62.3,25.8 C56,25.8 50.5,26.7 43.4,28.9 C24.9,34.8 21,45.9 21,54.2 C21,66.4 30.6,76.3 42.5,76.3 C43.4,76.3 44.3,76.2 45.1,76.2 L45.1,76.2 Z M30.8,54.2 C30.8,47.4 36.1,41.9 42.7,41.9 C49.3,41.9 54.6,47.4 54.6,54.2 C54.6,61 49.3,66.5 42.7,66.5 C36.1,66.5 30.8,61 30.8,54.2 Z" fill="#FAFAFA"/>
  <path d="M85.4,51.7 C84.6,51.7 83.8,51.7 83,51.8 C73.1,53 65.2,61.1 64,71.2 C63.1,79.6 66.8,87.7 73.4,92.2 C70.8,92.5 68.2,92.7 65.5,92.7 C59.3,92.7 53.4,91.8 47.8,90 C43.5,88.6 39.4,86.6 35.8,84.2 C35.2,83.8 34.5,83.6 33.8,83.6 C31.8,83.6 30.2,85.2 30.2,87.2 C30.2,88.2 30.6,89.2 31.3,89.9 C35.6,93.9 40.7,97 46.5,99.1 C52.3,101.3 58.7,102.3 65.3,102.3 C71.6,102.3 77.1,101.4 84.2,99.2 C102.7,93.4 106.6,82.2 106.6,73.9 C106.8,61.6 97.2,51.7 85.4,51.7 Z M85.4,86.1 C78.8,86.1 73.5,80.6 73.5,73.8 C73.5,67 78.8,61.5 85.4,61.5 C92,61.5 97.2,67 97.2,73.8 C97.2,80.6 91.9,86.1 85.4,86.1 Z" fill="#FAFAFA"/>
  <path d="M24,29.7 C28.5,22.6 38.1,16.7 48.1,14.9 C50.6,14.5 53.1,14.3 55.2,15.1 C56.8,15.7 58.1,17.2 57.2,18.9 C56.5,20.3 54.6,20.9 53.1,21.4 C43.8,24.4 35.2,27.8 30,35.7 C28,38.7 25.1,50.1 21.4,48 C17.5,45.7 18.3,38.5 24,29.7 Z" fill="#F9DF9D" opacity="0.35"/>
</svg>
